X:370
T:Man of the House, The
R:reel
D:Paddy Keenan: Port an Phiobaire
Z:id:hn-reel-370
M:C|
K:Edor
E2BE GABG|~E2BG FDAF|~E2BE GABc|1 dBcA BFAF:|2 dBcA BE~E2||
|efge fgaf|gfed edBd| ~e2ge fgaf|gfed eBBd|
 efge fgaf|gfed efga|~b2af gfed|edBG AGFD||
